!!!!SEGMENT: pl-wtm--r-131-m--006_moniuszko-stanislaw-msza-swieta-slowa-odynca-benedictus.krn
!!!id: 18xx:1729
!!!COM: Moniuszko, Stanisław
!!!OTL: Msza święta słowa Odyńca – Benedictus
!!!PDT:
!!!SMS-siglum: PL-Wtm
!!!SMS-shelfmark: R 131/M
!!!NIFC-rismID: 1001097550
!!!URL-scan: http://repozytorium.nifc.pl/skany/pl-wtm-nut--r131m
!!!ONB-nifc: UWAGA: części Mszy: 1. Kyrie, 2. Gloria, 3. Graduale, 4. Credo, 5. Sanctus, 6. Benedictus, 7. Agnus
!!!SMS-variant:
!!!SMS-altvar:
!!!OMD: Moderato.
**kern	**kern	**dynam	**kern	**kern	**dynam	**kern	**kern	**kern	**dynam
*part6	*part6	*part6	*part5	*part4	*part4	*part3	*part2	*part1	*part1
*staff7	*staff6	*	*staff5	*staff4	*	*staff3	*staff2	*staff1	*
*	*	*	*group1	*group1	*	*group1	*group1	*group1	*
*	*I"Organ.	*	*I"CA.	*I"Vc	*	*I"Vla.	*I"V. 2.	*I"V. 1.	*
*clefF4	*clefG2	*	*clefF4	*clefF4	*	*clefC3	*clefG2	*clefG2	*
*	*	*	*Trd0c0	*	*	*	*	*	*
*k[f#]	*k[f#]	*	*k[f#]	*k[f#]	*	*k[f#]	*k[f#]	*k[f#]	*
*M4/4	*M4/4	*	*M4/4	*M4/4	*	*M4/4	*M4/4	*M4/4	*
*met(c)	*met(c)	*	*met(c)	*met(c)	*	*met(c)	*met(c)	*met(c)	*
*all\right	*all\right	*	*all\right	*all\right	*	*all\right	*all\right	*all\right	*
=1	=1	=1	=1	=1	=1	=1	=1	=1	=1
*^	*	*	*	*	*	*	*	*	*
*	*	*	*	*	*	*	*Xbrackettup	*Xbrackettup	*Xbrackettup	*
!	!	!LO:TX:t=P:problem:przy kluczu f#	!	!	!	!	!LO:TX:t=P:problem:przy kluczu F#	!LO:TX:t=P:problem:przy kluczu f#	!LO:TX:t=P:problem:przy kluczu f#	!
!	!	!	!	!	!	!	!LO:TX:b:t=pizzi.	!LO:TX:b:t=pizzi	!	!
!	!	!	!LO:DY:rj:t=pp.	!	!	!LO:DY:t=p.	!LO:TUP:a:problem:klamra łukowa	!LO:TUP:a:problem:klamra łukowa	!LO:TUP:a:problem:klamra łukowa	!
(<4G/	1rAA	(1g	pp	1r	4G\	p	12r	12r	12r	.
!	!	!	!	!	!	!	!	!	!LO:TX:b:t=pizzi	!
.	.	.	.	.	.	.	12B|\L	12B|/L	12g|/L	.
.	.	.	.	.	.	.	12d|\J	12d|/J	12b|/J	.
*	*	*	*	*	*	*	*rep	*rep	*rep	*
!	!	!	!	!	!	!	!LO:TUP:a:problem:klamra łukowa	!LO:TUP:a:problem:klamra łukowa	!LO:TUP:a:problem:klamra łukowa	!
4F#/	.	.	.	.	4F#\	.	12r	12r	12r	.
.	.	.	.	.	.	.	12B|\L	12B|/L	12g|/L	.
.	.	.	.	.	.	.	12d|\J	12d|/J	12b|/J	.
*	*	*	*	*	*	*	*Xrep	*Xrep	*Xrep	*
*	*	*	*	*	*	*	*Xtuplet	*Xtuplet	*rep	*
!	!	!	!	!	!	!	!	!	!LO:TUP:a:problem:klamra łukowa	!
4E/	.	.	.	.	4E\	.	12r	12r	12r	.
.	.	.	.	.	.	.	12B\L	12B/L	12g|/L	.
.	.	.	.	.	.	.	12e\J	12e/J	12b|/J	.
*	*	*	*	*	*	*	*	*	*Xrep	*
*	*	*	*	*	*	*	*rep	*rep	*rep	*
!	!	!	!	!	!	!	!	!	!LO:TUP:a:problem:klamra łukowa	!
4D/	.	.	.	.	4D\	.	12r	12r	12r	.
.	.	.	.	.	.	.	12B\L	12B/L	12g|/L	.
.	.	.	.	.	.	.	12e\J	12e/J	12b|/J	.
*	*	*	*	*	*	*	*Xrep	*Xrep	*Xrep	*
=2	=2	=2	=2	=2	=2	=2	=2	=2	=2	=2
*	*	*^	*	*	*	*	*	*	*	*
*	*	*2\right	*	*	*	*	*	*	*	*Xtuplet	*
4C/	1rAA	[2a/	2g\	.	1r	4C\	.	12r	12r	12r	.
.	.	.	.	.	.	.	.	12A\L	12A/L	12g/L	.
.	.	.	.	.	.	.	.	12e\J	12e/J	12a/J	.
*	*	*	*	*	*	*	*	*rep	*rep	*rep	*
4C#X/	.	.	.	.	.	4C#X\	.	12r	12r	12r	.
.	.	.	.	.	.	.	.	12A\L	12A/L	12g/L	.
.	.	.	.	.	.	.	.	12e\J	12e/J	12a/J	.
*	*	*	*	*	*	*	*	*Xrep	*Xrep	*Xrep	*
4D/	.	4.a] 4.f#/	2ryy	.	.	4D\	.	12r	12r	12r	.
.	.	.	.	.	.	.	.	12A\L	12A/L	12f#/L	.
.	.	.	.	.	.	.	.	12d\J	12d/J	12a/J	.
*	*	*	*	*	*	*	*	*rep	*rep	*rep	*
4Cn/	.	.	.	.	.	4Cn\	.	12r	12r	12r	.
.	.	.	.	.	.	.	.	12A\L	12A/L	12f#/L	.
.	.	16bLL 16g/	.	.	.	.	.	.	.	.	.
.	.	.	.	.	.	.	.	12d\J	12d/J	12a/J	.
*	*	*	*	*	*	*	*	*Xrep	*Xrep	*Xrep	*
.	.	16ccJJ 16a/	.	.	.	.	.	.	.	.	.
*	*	*v	*v	*	*	*	*	*	*	*	*
=3	=3	=3	=3	=3	=3	=3	=3	=3	=3	=3
4BB/	1rAA	4dd 4b\	.	1r	4BB/	.	12r	12r	12r	.
.	.	.	.	.	.	.	12d\L	12d/L	12b\L	.
.	.	.	.	.	.	.	12g\J	12g/J	12cc\J	.
4C/	.	4cc 4a\	.	.	4C/	.	12r	12r	12r	.
.	.	.	.	.	.	.	12c\L	12c/L	12a\L	.
.	.	.	.	.	.	.	12e\J	12e/J	12cc\J	.
8D/)	.	4b 4g\	.	.	8D/	.	12r	12r	12r	.
.	.	.	.	.	.	.	12B\L	12B/L	12g\L	.
8r	.	.	.	.	8r	.	.	.	.	.
.	.	.	.	.	.	.	12d\J	12d/J	12b\J	.
4D/	.	4a 4f#/	.	.	4D/	.	12r	12r	12r	.
.	.	.	.	.	.	.	12A\L	12A/L	12f#\L	.
.	.	.	.	.	.	.	12d\J	12d/J	12a\J	.
=4	=4	=4	=4	=4	=4	=4	=4	=4	=4	=4
*	*	*^	*	*	*	*	*	*	*	*
4G/	1ryy	[4g/	2ryy	.	1r	4E\	.	12r	12r	12r	.
.	.	.	.	.	.	.	.	12B\L	12B/L	12g\L	.
.	.	.	.	.	.	.	.	12d\J	12d/J	12b\J	.
*	*	*	*	*	*	*	*	*rep	*rep	*rep	*
4BB/	.	4b 4g_< 4d/	.	.	.	4BB/	.	12r	12r	12r	.
.	.	.	.	.	.	.	.	12B\L	12B/L	12g\L	.
.	.	.	.	.	.	.	.	12d\J	12d/J	12b\J	.
*	*	*	*	*	*	*	*	*Xrep	*Xrep	*Xrep	*
4C/	.	2a/	(4g] 4e\	.	.	4C/	.	12r	12r	12r	.
.	.	.	.	.	.	.	.	12A\L	12A/L	12g/L	.
.	.	.	.	.	.	.	.	12e\J	12e/J	12a/J	.
*	*	*	*^	*	*	*	*	*	*	*	*
4D/	.	.	4f#/)	8d\L)	.	.	4D/	.	12r	12r	12r	.
.	.	.	.	.	.	.	.	.	12A\L	12A/L	12f#/L	.
.	.	.	.	8c\J	.	.	.	.	.	.	.	.
.	.	.	.	.	.	.	.	.	12c\J	12c/J	12a/J	.
*	*	*v	*v	*v	*	*	*	*	*	*	*	*
!!LO:LB:g=original
=5	=5	=5	=5	=5	=5	=5	=5	=5	=5	=5
!	!	!	!	!LO:TX:b:t=pizzi.	!	!	!	!	!	!
4G/	1rAA	1g 1B	.	8G\	4G\	.	12r	12r	12r	.
.	.	.	.	.	.	.	12B/L	12B/L	12g/L	.
.	.	.	.	8r	.	.	.	.	.	.
.	.	.	.	.	.	.	12d/J	12d/J	12b/J	.
*	*	*	*	*	*	*	*rep	*rep	*rep	*
4F#/	.	.	.	8F#\	4F#\	.	12r	12r	12r	.
.	.	.	.	.	.	.	12B/L	12B/L	12g/L	.
.	.	.	.	8r	.	.	.	.	.	.
.	.	.	.	.	.	.	12d/J	12d/J	12b/J	.
*	*	*	*	*	*	*	*Xrep	*Xrep	*Xrep	*
*	*	*	*	*	*	*	*	*	*rep	*
4E/	.	.	.	8E\	4E\	.	12r	12r	12r	.
.	.	.	.	.	.	.	12B/L	12B/L	12g/L	.
.	.	.	.	8r	.	.	.	.	.	.
.	.	.	.	.	.	.	12e/J	12e/J	12b/J	.
*	*	*	*	*	*	*	*	*	*Xrep	*
*	*	*	*	*	*	*	*rep	*rep	*rep	*
4D/	.	.	.	8D\	4D\	.	12r	12r	12r	.
.	.	.	.	.	.	.	12B/L	12B/L	12g/L	.
.	.	.	.	8r	.	.	.	.	.	.
.	.	.	.	.	.	.	12e/J	12e/J	12b/J	.
*	*	*	*	*	*	*	*Xrep	*Xrep	*Xrep	*
=6	=6	=6	=6	=6	=6	=6	=6	=6	=6	=6
*	*	*^	*	*	*	*	*	*	*	*
*	*	*	*^	*	*	*	*	*	*	*	*
4C/	1rAA	2a 2g/	2ryy	(<2.A\	.	8C/	4C\	.	12r	12r	12r	.
.	.	.	.	.	.	.	.	.	12A/L	12A/L	12g/L	.
.	.	.	.	.	.	8r	.	.	.	.	.	.
.	.	.	.	.	.	.	.	.	12e/J	12e/J	12a/J	.
*	*	*	*	*	*	*	*	*	*rep	*rep	*rep	*
4C#X/	.	.	.	.	.	8C#X/	4C#X\	.	12r	12r	12r	.
.	.	.	.	.	.	.	.	.	12A/L	12A/L	12g/L	.
.	.	.	.	.	.	8r	.	.	.	.	.	.
.	.	.	.	.	.	.	.	.	12e/J	12e/J	12a/J	.
*	*	*	*	*	*	*	*	*	*Xrep	*Xrep	*Xrep	*
4D/	.	4.a/	2fn\	.	.	8D/	4D\	.	12r	12r	12r	.
.	.	.	.	.	.	.	.	.	12A/L	12A/L	12fn/L	.
.	.	.	.	.	.	8r	.	.	.	.	.	.
.	.	.	.	.	.	.	.	.	12d/J	12d/J	12a/J	.
*	*	*	*	*	*	*	*	*	*rep	*rep	*rep	*
4Cn/	.	.	.	4d\)	.	8Cn/	4Cn/	.	12r	12r	12r	.
.	.	.	.	.	.	.	.	.	12A/L	12A/L	12f/L	.
.	.	16b/LL	.	.	.	8r	.	.	.	.	.	.
.	.	.	.	.	.	.	.	.	12d/J	12d/J	12a/J	.
*	*	*	*	*	*	*	*	*	*Xrep	*Xrep	*Xrep	*
.	.	16cc/JJ	.	.	.	.	.	.	.	.	.	.
=7	=7	=7	=7	=7	=7	=7	=7	=7	=7	=7	=7	=7
4BB/	1rAA	4dd 4g#X/	2e\	2ryy	.	8BB/	4BB/	.	12r	12r	12r	.
!	!	!	!	!	!	!	!	!	!	!	!LO:TX:t=P:problem:mixed beam	!
.	.	.	.	.	.	.	.	.	12g#X\L	12g#X/L	12d/L	.
.	.	.	.	.	.	8r	.	.	.	.	.	.
.	.	.	.	.	.	.	.	.	12e\J	12e/J	12dd\J	.
4C/	.	4cc [<4a/	.	.	.	8C/	4C/	.	12r	12r	12r	.
!	!	!	!	!	!	!	!	!	!	!	!LO:TX:t=P:problem:mixed beam	!
.	.	.	.	.	.	.	.	.	12a\L	12a/L	12e/L	.
.	.	.	.	.	.	8r	.	.	.	.	.	.
.	.	.	.	.	.	.	.	.	12e\J	12e/J	12cc\J	.
4D/	.	2b/	4a] 4fn\	4ryy	.	8D\	4D/	.	12r	12r	12r	.
.	.	.	.	.	.	.	.	.	12B\L	12B/L	12a\L	.
.	.	.	.	.	.	8r	.	.	.	.	.	.
.	.	.	.	.	.	.	.	.	12a\J	12a/J	12b\J	.
4E/	.	.	4g#X\	8e\L	.	8E\	4E/	.	12r	12r	12r	.
.	.	.	.	.	.	.	.	.	12B/L	12B/L	12g#X\L	.
.	.	.	.	8d\J	.	8r	.	.	.	.	.	.
!	!	!	!	!	!	!	!	!	!	!LO:TX:t=P:problem:skreślona nuta	!	!
.	.	.	.	.	.	.	.	.	12d/J	12d/J	12b\J	.
*	*	*	*v	*v	*	*	*	*	*	*	*	*
=8	=8	=8	=8	=8	=8	=8	=8	=8	=8	=8	=8
4A\	1rAA	1cc 1a	2c\	.	8A\	4A\	.	12r	12r	12r	.
.	.	.	.	.	.	.	.	12c\L	12c/L	12a\L	.
.	.	.	.	.	8r	.	.	.	.	.	.
.	.	.	.	.	.	.	.	12e\J	12e/J	12cc\J	.
*	*	*	*	*	*	*	*	*rep	*rep	*rep	*
4G\	.	.	.	.	4r	4Gn\	.	12r	12r	12r	.
.	.	.	.	.	.	.	.	12c\L	12c/L	12a\L	.
.	.	.	.	.	.	.	.	12e\J	12e/J	12cc\J	.
*	*	*	*	*	*	*	*	*Xrep	*Xrep	*Xrep	*
*	*	*	*	*	*	*	*	*	*	*rep	*
!	!	!	!	!	!LO:N:vis=1	!	!	!	!	!	!
4F#\	.	.	2e\	.	2r	4F#\	.	12r	12r	12r	.
.	.	.	.	.	.	.	.	12c\L	12c/L	12a\L	.
.	.	.	.	.	.	.	.	12d#X\J	12d#X/J	12cc\J	.
*	*	*	*	*	*	*	*	*	*	*Xrep	*
*	*	*	*	*	*	*	*	*	*	*rep	*
4E\	.	.	.	.	.	4E\	.	12r	12r	12r	.
.	.	.	.	.	.	.	.	12c\L	12c/L	12a\L	.
!	!	!	!	!	!	!	!	!	!	!LO:TX:t=P:problem:tekst "Dalszy ciąg mszy E-moll Moniuszki" na marginesie	!
.	.	.	.	.	.	.	.	12e\J	12e/J	12cc\J	.
*	*	*	*	*	*	*	*	*	*	*Xrep	*
!!LO:PB:g=original
=9	=9	=9	=9	=9	=9	=9	=9	=9	=9	=9	=9
4F# 4D#X/	1r	2b/	4a 4f#\	.	1r	4D#X\	.	12r	12r	12r	.
.	.	.	.	.	.	.	.	12B\L	12B/L	12a\L	.
.	.	.	.	.	.	.	.	12f#\J	12f#/J	12b\J	.
(4G 4E/	.	.	2g 2e\	.	.	4E\	.	12r	12r	12r	.
.	.	.	.	.	.	.	.	12B\L	12B/L	12g\L	.
.	.	.	.	.	.	.	.	12e\J	12e/J	12b\J	.
4E 4C/)	.	2a/	.	.	.	4C\	.	12r	12r	12r	.
.	.	.	.	.	.	.	.	12A\L	12A/L	12g/L	.
.	.	.	.	.	.	.	.	12e\J	12e/J	12a/J	.
(4F# 4Dn/	.	.	[4f# [4d\	.	.	4Dn\	.	12r	12r	12r	.
.	.	.	.	.	.	.	.	12A\L	12A/L	12f#/L	.
.	.	.	.	.	.	.	.	12d\J	12d/J	12a/J	.
=10	=10	=10	=10	=10	=10	=10	=10	=10	=10	=10	=10
4D 4BB/)	1r	2g/	4f#] 4d\]	.	1r	4BB/	.	12r	12r	12r	.
.	.	.	.	.	.	.	.	12G\L	12G/L	12f#/L	.
.	.	.	.	.	.	.	.	12d\J	12d/J	12g/J	.
(4E 4C/	.	.	2e 2c\	.	.	4C/	.	12r	12r	12r	.
.	.	.	.	.	.	.	.	12G/L	12G/L	12e/L	.
.	.	.	.	.	.	.	.	12c/J	12c/J	12g/J	.
!	!	!	!	!	!	!	!	!	!LO:TX:t=P:problem:skreślona nuta	!	!
4C 4AA/)	.	2f#/	.	.	.	4AA/	.	12r	12r	12r	.
.	.	.	.	.	.	.	.	12c/L	12c/L	12e/L	.
.	.	.	.	.	.	.	.	12A/J	12A/J	12f#/J	.
8BB/L	.	.	4d#X 4B\	.	.	4BB/	.	12r	12r	12r	.
.	.	.	.	.	.	.	.	12F#/L	12B/L	12d#X/L	.
8AA/J	.	.	.	.	.	.	.	.	.	.	.
.	.	.	.	.	.	.	.	12B/J	12B/J	12f#/J	.
*v	*v	*	*	*	*	*	*	*	*	*	*
=11	=11	=11	=11	=11	=11	=11	=11	=11	=11	=11
!	!LO:TX:t=P:problem:skreślona nuta	!	!	!	!	!	!	!LO:TX:t=P:problem:skreślona nuta	!	!
4GG/	4e/	1e	.	1r	4GG/	.	12r	12r	12r	.
!	!	!	!	!	!	!	!LO:TX:t=P:problem:skreślona nuta	!	!	!
.	.	.	.	.	.	.	12E/L	12B/L	12B/L	.
.	.	.	.	.	.	.	12B/J	12B/J	12e/J	.
4BB/	4f#/	.	.	.	4BB/	.	12r	12r	12r	.
!	!	!	!	!	!	!	!	!	!LO:TX:t=cres_cen_do:problem:dynamics with extention lines	!LO:HP:t=cres_cen_do.:ext=ud
.	.	.	.	.	.	.	12F#/L	12e/L	12e/L	<
.	.	.	.	.	.	.	12B/J	12B/J	12f#/J	.
4E/	4g/	.	.	.	4E/	.	12r	12r	12r	.
.	.	.	.	.	.	.	12B\L	12B/L	12g/L	.
.	.	.	.	.	.	.	12e\J	12e/J	12b/J	.
*	*	*	*	*	*	*	*rep	*rep	*	*
4BB/	4a 4f#/	.	.	.	4BB/	.	12r	12r	12r	.
.	.	.	.	.	.	.	12B\L	12B/L	12f#/L	.
.	.	.	.	.	.	.	12e\J	12e/J	12b/J	.
*	*	*	*	*	*	*	*Xrep	*Xrep	*	*
=12	=12	=12	=12	=12	=12	=12	=12	=12	=12	=12
4EE/	4b/	2g\	.	1r	4EE/	.	12r	12r	12r	.
.	.	.	.	.	.	.	12B\L	12B/L	12g/L	.
.	.	.	.	.	.	.	12e\J	12e/J	12b/J	.
4E/	4cc#X/	.	.	.	4E\	.	12r	12r	12r	.
.	.	.	.	.	.	.	12c#X\L	12c#X/L	12a\L	.
.	.	.	.	.	.	.	12a\J	12a/J	12cc#X\J	.
4D/	4dd/	4f#\	.	.	4D\	.	12r	12r	12r	.
.	.	.	.	.	.	.	12d\L	12d/L	12a\L	.
.	.	.	.	.	.	.	12f#\J	12f#/J	12dd\J	.
4C#X/	4ee/	4g\	.	.	4C#X/	.	12r	12r	12r	[
.	.	.	.	.	.	.	12e\L	12e/L	12a\L	.
.	.	.	.	.	.	.	12g\J	12g/J	12ee\J	.
!!LO:LB:g=original
=13	=13	=13	=13	=13	=13	=13	=13	=13	=13	=13
*^	*	*	*	*	*	*	*	*	*	*
2A/	4C\	(2ee/	2f#\	.	4C/	4C\	.	12r	12r	12r	.
.	.	.	.	.	.	.	.	12e\L	12e/L	12a\L	.
!	!	!	!	!	!	!	!	!	!	!LO:SIC:v:s=12dd	!
.	.	.	.	.	.	.	.	12f#\J	12f#/J	12ee\J	.
*	*	*	*	*	*	*	*	*rep	*rep	*rep	*
.	4D\	.	.	.	4rF	4D\	.	12r	12r	12r	.
.	.	.	.	.	.	.	.	12e\L	12e/L	12a\L	.
!	!	!	!	!	!	!	!	!	!	!LO:SIC:v:s=12dd	!
.	.	.	.	.	.	.	.	12f#\J	12f#/J	12ee\J	.
*	*	*	*	*	*	*	*	*Xrep	*Xrep	*Xrep	*
!	!	!	!	!	!LO:SIC:v:s=4BB	!	!	!	!	!	!
4.B/	4BB\	4dd 4g/	2ryy	.	4C/	4BB\	.	12r	12r	12r	.
.	.	.	.	.	.	.	.	12d\L	12d/L	12a\L	.
.	.	.	.	.	.	.	.	12g\J	12g/J	12cc\J	.
*	*	*	*	*	*	*	*	*rep	*rep	*	*
.	4D\	4b 4d/	.	.	4r	4D\	.	12r	12r	12r	.
.	.	.	.	.	.	.	.	12d\L	12d/L	12g/L	.
8G/	.	.	.	.	.	.	.	.	.	.	.
.	.	.	.	.	.	.	.	12g\J	12g/J	12b/J	.
*	*	*	*	*	*	*	*	*Xrep	*Xrep	*	*
=14	=14	=14	=14	=14	=14	=14	=14	=14	=14	=14	=14
*	*	*	*^	*	*	*	*	*	*	*	*
4AA/	1r	2cc/	4.g\	[<2d\	.	4AA/	4AA/	.	12r	12r	12r	.
.	.	.	.	.	.	.	.	.	12d\L	12d/L	12g/L	.
.	.	.	.	.	.	.	.	.	12e\J	12e/J	12cc/J	.
4D/	.	.	.	.	.	4r	4D/	.	12r	12r	12r	.
.	.	.	.	.	.	.	.	.	12g\L	12g/L	12d/L	.
.	.	.	8f#\	.	.	.	.	.	.	.	.	.
.	.	.	.	.	.	.	.	.	12f#\J	12f#/J	12cc/J	.
4GG/	.	4b/	2g\	2d\]	.	4GG/	4GG/	.	12r	12r	12r	.
.	.	.	.	.	.	.	.	.	12a\L	12a/L	12d/L	.
.	.	.	.	.	.	.	.	.	12g\J	12g/J	12b/J	.
4BB/	.	4dd/)	.	.	.	4r	4BB/	.	12r	12r	12r	.
!	!	!	!	!	!	!	!	!	!	!	!LO:TX:t=P:problem:mixed beam	!
.	.	.	.	.	.	.	.	.	12a\L	12a/L	12d/L	.
.	.	.	.	.	.	.	.	.	12g\J	12g/J	12dd\J	.
*	*	*	*v	*v	*	*	*	*	*	*	*	*
=15	=15	=15	=15	=15	=15	=15	=15	=15	=15	=15	=15
4E/	1r	4g 4c#X/	2ryy	.	1r	(4E\	.	12r	12r	12r	.
!	!	!	!	!	!	!	!	!LO:TX:t=P:problem:mixed beam	!	!	!
.	.	.	.	.	.	.	.	12g\L	12g/L	12g/L	.
.	.	.	.	.	.	.	.	12A/J	12A/J	12a/J	.
*	*	*	*	*	*	*	*	*rep	*rep	*rep	*
4E-X/	.	4a 4cn/	.	.	.	4E-X\	.	12r	12r	12r	.
!	!	!	!	!	!	!	!	!LO:TX:t=P:problem:mixed beam	!	!	!
.	.	.	.	.	.	.	.	12g\L	12g/L	12g/L	.
.	.	.	.	.	.	.	.	12A/J	12A/J	12a/J	.
*	*	*	*	*	*	*	*	*Xrep	*Xrep	*Xrep	*
4D/	.	(4.b/	4g 4B\	.	.	4D\)	.	12r	12r	12r	.
.	.	.	.	.	.	.	.	12d/L	12d/L	12d/L	.
.	.	.	.	.	.	.	.	12B/J	12B/J	12g/J	.
4DD/	.	.	4f# 4c\	.	.	4D\	.	12r	12r	12r	.
.	.	.	.	.	.	.	.	12A/L	12A/L	12f#/L	.
.	.	8a/)	.	.	.	.	.	.	.	.	.
.	.	.	.	.	.	.	.	12d/J	12d/J	12a/J	.
*	*	*v	*v	*	*	*	*	*	*	*	*
=16	=16	=16	=16	=16	=16	=16	=16	=16	=16	=16
4G\	1rFF	2g 2B\	.	8G\	4G\	.	12r	12r	12r	.
.	.	.	.	.	.	.	12B\L	12B/L	12g/L	.
.	.	.	.	8r	.	.	.	.	.	.
.	.	.	.	.	.	.	12d\J	12d/J	12b/J	.
*	*	*	*	*	*	*	*rep	*rep	*rep	*
4F#\	.	.	.	8F#\	4F#\	.	12r	12r	12r	.
.	.	.	.	.	.	.	12B\L	12B/L	12g/L	.
.	.	.	.	8r	.	.	.	.	.	.
.	.	.	.	.	.	.	12d\J	12d/J	12b/J	.
*	*	*	*	*	*	*	*Xrep	*Xrep	*Xrep	*
*	*	*	*	*	*	*	*	*	*rep	*
!	!	!LO:N:vis=1	!	!	!	!	!	!	!	!
4E\	.	2rg	.	8E\	4E\	.	12r	12r	12r	.
.	.	.	.	.	.	.	12B\L	12B/L	12g/L	.
.	.	.	.	8r	.	.	.	.	.	.
.	.	.	.	.	.	.	12e\J	12e/J	12b/J	.
*	*	*	*	*	*	*	*	*	*Xrep	*
*	*	*	*	*	*	*	*rep	*rep	*rep	*
4D\	.	.	.	8D\	4D\	.	12r	12r	12r	.
.	.	.	.	.	.	.	12B\L	12B/L	12g/L	.
.	.	.	.	8r	.	.	.	.	.	.
.	.	.	.	.	.	.	12e\J	12e/J	12b/J	.
*	*	*	*	*	*	*	*Xrep	*Xrep	*Xrep	*
=17	=17	=17	=17	=17	=17	=17	=17	=17	=17	=17
*	*	*^	*	*	*	*	*	*	*	*
4C/	1r	2.a/	2g\	.	8C/	4C/	.	12r	12r	12r	.
.	.	.	.	.	.	.	.	12A\L	12A/L	12g/L	.
.	.	.	.	.	8r	.	.	.	.	.	.
.	.	.	.	.	.	.	.	12e\J	12e/J	12a/J	.
*	*	*	*	*	*	*	*	*rep	*rep	*rep	*
4C#X/	.	.	.	.	8C#X/	4C#X/	.	12r	12r	12r	.
.	.	.	.	.	.	.	.	12A\L	12A/L	12g/L	.
.	.	.	.	.	8r	.	.	.	.	.	.
.	.	.	.	.	.	.	.	12e\J	12e/J	12a/J	.
*	*	*	*	*	*	*	*	*Xrep	*Xrep	*Xrep	*
4D/	.	.	2fn\	.	8D/	4D/	.	12r	12r	12r	.
.	.	.	.	.	.	.	.	12A\L	12A/L	12fn/L	.
.	.	.	.	.	8r	.	.	.	.	.	.
.	.	.	.	.	.	.	.	12d\J	12d/J	12a/J	.
4G 4GG/	.	4b 4d/	.	.	8G\	4G 4GG/	.	12r	12r	12r	.
!	!	!	!	!	!	!	!	!	!	!LO:TX:b:t=g	!
.	.	.	.	.	.	.	.	12fn\L	12fn/L	12G/L	.
.	.	.	.	.	8r	.	.	.	.	.	.
.	.	.	.	.	.	.	.	12d\J	12d/J	12b/J	.
!!LO:PB:g=original
=18	=18	=18	=18	=18	=18	=18	=18	=18	=18	=18	=18
4c\	1rFF	1cc	[2.e\	.	8c\	4c\	.	12r	12r	12r	.
.	.	.	.	.	.	.	.	12c\L	12c/L	12g\L	.
.	.	.	.	.	8r	.	.	.	.	.	.
.	.	.	.	.	.	.	.	12e\J	12e/J	12cc\J	.
*	*	*	*	*	*	*	*	*rep	*rep	*rep	*
4B\	.	.	.	.	8B\	4B\	.	12r	12r	12r	.
.	.	.	.	.	.	.	.	12c\L	12c/L	12g\L	.
.	.	.	.	.	8r	.	.	.	.	.	.
.	.	.	.	.	.	.	.	12e\J	12e/J	12cc\J	.
*	*	*	*	*	*	*	*	*Xrep	*Xrep	*Xrep	*
*	*	*	*	*	*	*	*	*rep	*rep	*	*
4A\	.	.	.	.	8A\	4A\	.	12r	12r	12r	.
.	.	.	.	.	.	.	.	12c\L	12c/L	12a\L	.
.	.	.	.	.	8r	.	.	.	.	.	.
.	.	.	.	.	.	.	.	12e\J	12e/J	12cc\J	.
*	*	*	*	*	*	*	*	*Xrep	*Xrep	*	*
*	*	*	*	*	*	*	*	*rep	*rep	*rep	*
4G\	.	.	4a 4e\]	.	8G\	4G\	.	12r	12r	12r	.
.	.	.	.	.	.	.	.	12c\L	12c/L	12a\L	.
.	.	.	.	.	8r	.	.	.	.	.	.
.	.	.	.	.	.	.	.	12e\J	12e/J	12cc\J	.
*	*	*	*	*	*	*	*	*Xrep	*Xrep	*Xrep	*
=19	=19	=19	=19	=19	=19	=19	=19	=19	=19	=19	=19
4F#\	1rFF	2b/	2a 2d#X\	.	8F#\	4F#\	.	12r	12r	12r	.
.	.	.	.	.	.	.	.	12B\L	12B/L	12a\L	.
.	.	.	.	.	8r	.	.	.	.	.	.
.	.	.	.	.	.	.	.	12d#X\J	12d#X/J	12b\J	.
*	*	*	*	*	*	*	*	*rep	*rep	*rep	*
4Fn\	.	.	.	.	8Fn\	4Fn\	.	12r	12r	12r	.
.	.	.	.	.	.	.	.	12B\L	12B/L	12a\L	.
.	.	.	.	.	8r	.	.	.	.	.	.
.	.	.	.	.	.	.	.	12d#\J	12d#/J	12b\J	.
*	*	*	*	*	*	*	*	*Xrep	*Xrep	*Xrep	*
4E\	.	4b 4g#X/	8e\	.	8E\	4E\	.	12r	12r	12r	.
.	.	.	.	.	.	.	.	12B\L	12B/L	12g#X/L	.
.	.	.	8r	.	8r	.	.	.	.	.	.
.	.	.	.	.	.	.	.	12e\J	12e/J	12b/J	.
!	!	!LO:SIC:v:n=1:s=4cc#	!	!	!	!	!	!	!	!	!
4E-X\	.	4cc 4gn/	4r	.	8E-X\	4E-X\	.	12r	12r	12r	.
!	!	!	!	!	!	!	!	!LO:TX:t=P:problem:mixed beam	!	!	!
.	.	.	.	.	.	.	.	12c#X/L	12c#X/L	12b/L	.
.	.	.	.	.	8r	.	.	.	.	.	.
!	!	!	!	!	!	!	!	!	!LO:TX:t=P:problem:skreślona nuta	!	!
.	.	.	.	.	.	.	.	12a\J	12a/J	12cc#X/J	.
*	*	*v	*v	*	*	*	*	*	*	*	*
=20	=20	=20	=20	=20	=20	=20	=20	=20	=20	=20
*	*^	*	*	*	*	*	*	*	*	*
2.A/	4D\	1rFF	4dd 4f#/	.	8D/	4D/	.	12r	12r	12r	.
.	.	.	.	.	.	.	.	12d\L	12d/L	12a\L	.
.	.	.	.	.	8r	.	.	.	.	.	.
.	.	.	.	.	.	.	.	12f#\J	12f#/J	12dd\J	.
.	4C#X\	.	4ee 4g/	.	8C#X/	4C#X/	.	12r	12r	12r	.
.	.	.	.	.	.	.	.	12e\L	12e/L	12a\L	.
.	.	.	.	.	8r	.	.	.	.	.	.
.	.	.	.	.	.	.	.	12g\J	12g/J	12ee\J	.
.	4D\	.	4dd 4f#/	.	8D/	4D/	.	12r	12r	12r	.
.	.	.	.	.	.	.	.	12d\L	12d/L	12a\L	.
.	.	.	.	.	8r	.	.	.	.	.	.
.	.	.	.	.	.	.	.	12f#\J	12f#/J	12dd\J	.
4G/	4E\	.	4b 4g/	.	8E\	4E/	.	12r	12r	12r	.
.	.	.	.	.	.	.	.	12B\L	12B/L	12g/L	.
.	.	.	.	.	8r	.	.	.	.	.	.
.	.	.	.	.	.	.	.	12e\J	12e/J	12b/J	.
*	*v	*v	*	*	*	*	*	*	*	*	*
=21	=21	=21	=21	=21	=21	=21	=21	=21	=21	=21
4A 4AA/	1r	4cc 4a 4e/	.	8AA/	4AA/	.	12r	12r	12r	.
.	.	.	.	.	.	.	12c\L	12c/L	12a\L	.
.	.	.	.	8r	.	.	.	.	.	.
.	.	.	.	.	.	.	12e\J	12e/J	12cc\J	.
4G#X 4GG#X/	.	4dd 4b 4fn/	.	8GG#X/	4GG#X/	.	12r	12r	12r	.
.	.	.	.	.	.	.	12d\L	12d/L	12b\L	.
.	.	.	.	8r	.	.	.	.	.	.
.	.	.	.	.	.	.	12fn\J	12fn/J	12dd\J	.
4A 4AA/	.	4cc 4e/	.	8AA/	4AA/	.	12r	12r	12r	.
.	.	.	.	.	.	.	12c\L	12c/L	12a\L	.
.	.	.	.	8r	.	.	.	.	.	.
.	.	.	.	.	.	.	12e\J	12e/J	12cc\J	.
4C/	.	4a 4e/	.	8C/	4C/	.	12r	12r	12r	.
.	.	.	.	.	.	.	12A\L	12A/L	12e/L	.
.	.	.	.	8r	.	.	.	.	.	.
.	.	.	.	.	.	.	12e\J	12e/J	12a/J	.
=22	=22	=22	=22	=22	=22	=22	=22	=22	=22	=22
*	*	*^	*	*	*	*	*	*	*	*
4D/	1r	4f#/	8d\L	.	8D\	4D/	.	12r	12r	12r	.
.	.	.	.	.	.	.	.	12A/L	12A/L	12f#/L	.
.	.	.	8c\J	.	8r	.	.	.	.	.	.
.	.	.	.	.	.	.	.	12c/J	12c/J	12a/J	.
4E/	.	4g 4B/	4ryy	.	8E\	4E\	.	12r	12r	12r	.
.	.	.	.	.	.	.	.	12G/L	12G/L	12e/L	.
.	.	.	.	.	8r	.	.	.	.	.	.
.	.	.	.	.	.	.	.	12B/J	12B/J	12g/J	.
4C/	.	4a 4g 4A/	2ryy	.	8C/	4C/	.	12r	12r	12r	.
.	.	.	.	.	.	.	.	12A/L	12A/L	12g/L	.
.	.	.	.	.	8r	.	.	.	.	.	.
.	.	.	.	.	.	.	.	12e/J	12e/J	12a/J	.
4AA/	.	4cc 4a 4e/	.	.	8AA/	4AA/	.	12r	12r	12r	.
.	.	.	.	.	.	.	.	12c\L	12c/L	12g/L	.
.	.	.	.	.	8r	.	.	.	.	.	.
.	.	.	.	.	.	.	.	12e\J	12e/J	12a/J	.
=23	=23	=23	=23	=23	=23	=23	=23	=23	=23	=23	=23
!LO:TX:t=P:problem:skreślony takt	!	!	!	!	!	!	!	!	!	!	!
4r	1D	4b 4d/	2ryy	.	8D\	4D\	.	12r	12r	12r	.
.	.	.	.	.	.	.	.	12d\L	12d/L	12b\L	.
.	.	.	.	.	8r	.	.	.	.	.	.
.	.	.	.	.	.	.	.	12fn\J	12fn/J	12dd\J	.
*	*	*	*	*	*rep	*2\right	*	*	*	*	*
!	!	!LO:TX:t=P:problem:skreślony fragment	!	!	!	!	!	!	!	!	!
4B/	.	4g#X 4fn/	.	.	8D\	2D\	.	12r	12r	12r	.
.	.	.	.	.	.	.	.	12B\L	12B/L	12g#X/L	.
.	.	.	.	.	8r	.	.	.	.	.	.
*	*	*	*	*	*Xrep	*	*	*	*	*	*
.	.	.	.	.	.	.	.	12d\J	12d/J	12b/J	.
*	*	*	*	*	*rep	*	*	*	*	*	*
4c/	.	4a 4e/	4ryy	.	8D\	.	.	12r	12r	12r	.
.	.	.	.	.	.	.	.	12c\L	12c/L	12a/L	.
.	.	.	.	.	8r	.	.	.	.	.	.
*	*	*	*	*	*Xrep	*	*	*	*	*	*
.	.	.	.	.	.	.	.	12e\J	12e/J	12cc/J	.
*	*	*	*	*	*rep	*	*	*	*	*	*
4A/	.	4f#X/	8d\L	.	8D\	4D\	.	12r	12r	12r	.
.	.	.	.	.	.	.	.	12A/L	12A/L	12f#/L	.
.	.	.	8c\J	.	8r	.	.	.	.	.	.
*	*	*	*	*	*Xrep	*	*	*	*	*	*
.	.	.	.	.	.	.	.	12c/J	12c/J	12a/J	.
!!LO:LB:g=original
=24	=24	=24	=24	=24	=24	=24	=24	=24	=24	=24	=24
*	*^	*	*	*	*	*	*	*	*	*	*
!	!	!	!LO:TX:t=P:problem:skreślona nuta	!	!	!LO:TX:a:t=arco	!LO:TX:b:t=pizzi.	!	!	!	!	!
4G\	4GG/	1rFF	4g/	2.B\	.	[>1GG	4GG/	.	12r	12r	12r	.
.	.	.	.	.	.	.	.	.	12B\L	12B/L	12g/L	.
.	.	.	.	.	.	.	.	.	12d\J	12d/J	12f#/J	.
4D/	4ryy	.	4r	.	.	.	4D/	.	12r	12r	12r	.
.	.	.	.	.	.	.	.	.	12G/L	12G/L	12e/L	.
.	.	.	.	.	.	.	.	.	12B/J	12B/J	12d/J	.
4GG/	2ryy	.	2r	.	.	.	4GG/	.	12r	12r	12r	.
.	.	.	.	.	.	.	.	.	12B\L	12B/L	12g/L	.
.	.	.	.	.	.	.	.	.	12d\J	12d/J	12f#/J	.
4D/	.	.	.	4d\	.	.	4D/	.	12r	12r	12r	.
.	.	.	.	.	.	.	.	.	12G/L	12G/L	12e/L	.
.	.	.	.	.	.	.	.	.	12B/J	12B/J	12d/J	.
*	*v	*v	*	*	*	*	*	*	*	*	*	*
=25	=25	=25	=25	=25	=25	=25	=25	=25	=25	=25	=25
*	*	*	*	*	*	*rep	*	*	*	*	*
4GG/	1r	2.e/	2d\	.	1GG]	4GG/	.	12r	12r	12r	.
.	.	.	.	.	.	.	.	12c/L	12c/L	12e/L	.
.	.	.	.	.	.	.	.	12A/J	12A/J	12f#/J	.
4D/	.	.	.	.	.	4D/	.	12r	12r	12r	.
.	.	.	.	.	.	.	.	12e\L	12e/L	12g/L	.
.	.	.	.	.	.	.	.	12c\J	12c/J	12a/J	.
!LO:TX:t=P:problem:skreślone powtórzenie	!	!	!	!	!	!	!	!	!	!	!
4GG/	.	.	2c\	.	.	4GG/	.	12r	12r	12r	.
.	.	.	.	.	.	.	.	12c/L	12c/L	12e/L	.
.	.	.	.	.	.	.	.	12A/J	12A/J	12f#/J	.
4D/	.	8e/L	.	.	.	4D/	.	12r	12r	12r	.
.	.	.	.	.	.	.	.	12e\L	12e/L	12g/L	.
.	.	8f#/J	.	.	.	.	.	.	.	.	.
.	.	.	.	.	.	.	.	12c\J	12c/J	12a/J	.
*	*	*	*	*	*	*Xrep	*	*	*	*	*
*	*	*v	*v	*	*	*	*	*	*	*	*
=26	=26	=26	=26	=26	=26	=26	=26	=26	=26	=26
*rep	*	*	*	*	*rep	*	*rep	*rep	*rep	*
!	!	!	!	!	!LO:TX:t=P:problem:dwutaktowa repetycja	!	!	!	!	!
!	!	!	!	!	!LO:TX:b:t=pizzi.	!	!LO:TX:t=P:problem:dwutaktowa repetycja	!LO:TX:t=P:problem:dwutaktowa repetycja	!LO:TX:t=P:problem:dwutaktowa repetycja	!
4GG/	1r	2.d 2.B/	.	[>1GG^>	4GG/	.	12r	12r	12r	.
.	.	.	.	.	.	.	12B\L	12B/L	12g/L	.
.	.	.	.	.	.	.	12d\J	12d/J	12f#/J	.
4D/	.	.	.	.	4D/	.	12r	12r	12r	.
.	.	.	.	.	.	.	12G/L	12G/L	12e/L	.
.	.	.	.	.	.	.	12B/J	12B/J	12d/J	.
4GG/	.	.	.	.	4GG/	.	12r	12r	12r	.
.	.	.	.	.	.	.	12B\L	12B/L	12g/L	.
.	.	.	.	.	.	.	12d\J	12d/J	12f#/J	.
4D/	.	4d/	.	.	4D/	.	12r	12r	12r	.
.	.	.	.	.	.	.	12G/L	12G/L	12e/L	.
.	.	.	.	.	.	.	12B/J	12B/J	12d/J	.
*Xrep	*	*	*	*	*	*	*	*	*	*
=27	=27	=27	=27	=27	=27	=27	=27	=27	=27	=27
*	*	*^	*	*	*	*	*	*	*	*
*rep	*	*	*	*	*	*	*	*	*	*	*
!	!	!LO:N:vis=2	!	!	!	!	!	!	!	!	!
4GG/	1r	2.e/	2d\	.	1GG]	4GG/	.	12r	12r	12r	.
.	.	.	.	.	.	.	.	12c/L	12c/L	12e/L	.
.	.	.	.	.	.	.	.	12A/J	12A/J	12f#/J	.
4D/	.	.	.	.	.	4D/	.	12r	12r	12r	.
.	.	.	.	.	.	.	.	12e\L	12e/L	12g/L	.
.	.	.	.	.	.	.	.	12c\J	12c/J	12a/J	.
4GG/	.	.	2c\	.	.	4GG/	.	12r	12r	12r	.
.	.	.	.	.	.	.	.	12c/L	12c/L	12e/L	.
.	.	.	.	.	.	.	.	12A/J	12A/J	12f#/J	.
4D/	.	8e/L	.	.	.	4D/	.	12r	12r	12r	.
.	.	.	.	.	.	.	.	12e\L	12e/L	12g/L	.
.	.	8f#/J	.	.	.	.	.	.	.	.	.
.	.	.	.	.	.	.	.	12c\J	12c/J	12a/J	.
*Xrep	*	*	*	*	*	*Xrep	*	*Xrep	*Xrep	*Xrep	*
*v	*v	*	*	*	*	*	*	*	*	*	*
*	*v	*v	*	*	*	*	*	*	*	*
=28	=28	=28	=28	=28	=28	=28	=28	=28	=28
4GG/	(4g 4B/	.	2GG/	4GG/	.	12r	12r	12r	.
.	.	.	.	.	.	12B\L	12B/L	12g/L	.
.	.	.	.	.	.	12d\J	12d/J	12d/J	.
4r	[<4b 4d/	.	.	4D/	.	12r	12r	12r	.
.	.	.	.	.	.	12d\L	12d/L	12b/L	.
.	.	.	.	.	.	12g\J	12g/J	12g/J	.
2r	4dd 4b\_	.	2r	4G\	.	12r	12r	12r	.
.	.	.	.	.	.	12b\L	12b/L	12dd\L	.
.	.	.	.	.	.	12g\J	12g/J	12b\J	.
.	4gg 4b\])	.	.	4d\	.	12r	12r	12r	.
.	.	.	.	.	.	12b\L	12b/L	12gg\L	.
.	.	.	.	.	.	12d\J	12d/J	12dd\J	.
=29	=29	=29	=29	=29	=29	=29	=29	=29	=29
!	!LO:TX:t=P:problem:skreślony akord	!	!	!	!	!	!	!	!
1d 1G;	1bb 1gg 1b;	.	1ryy	4G\	.	4g 4G/	4b 4d/	4bb 4b\	.
.	.	.	.	4rF	.	4r	4r	4r	.
!	!	!	!	!LO:N:vis=1	!	!	!LO:N:vis=1	!	!
.	.	.	.	2r;	.	2r;	2rb;	2rg;	.
==	==	==	==	==	==	==	==	==	==
*-	*-	*-	*-	*-	*-	*-	*-	*-	*-
!!!system-decoration: ([g1]{p6})
!!!RDF**kern: > = above
!!!RDF**kern: < = below
!!!RDF**kern: l = terminal long
!!!RDF**kern: | = vertical stroke
!!!ENC: Andrzej Kubiczek
!!!END: 2021-04-02
!!!ENC: Andrzej Kubiczek
!!!END: 2021-04-18
